flaticon/game/castle.svg

<svg xmlns="http://www.w3.org/2000/svg" width="32" height="32" viewBox="0 0 24 24">
    <path d="M 22.285156 9.214844 L 22.285156 0.644531 L 17.144531 0.644531 L 17.144531 2.355469 L 14.570312 2.355469 L 14.570312 0.644531 L 9.429688 0.644531 L 9.429688 2.355469 L 6.855469 2.355469 L 6.855469 0.644531 L 1.714844 0.644531 L 1.714844 9.214844 L 0 9.214844 L 0 23.355469 L 24 23.355469 L 24 9.214844 Z M 2.570312 1.5 L 6 1.5 L 6 3.214844 L 10.285156 3.214844 L 10.285156 1.5 L 13.714844 1.5 L 13.714844 3.214844 L 18 3.214844 L 18 1.5 L 21.429688 1.5 L 21.429688 9.214844 L 18.855469 9.214844 L 18.855469 13.070312 L 14.570312 13.070312 L 14.570312 9.214844 L 9.429688 9.214844 L 9.429688 13.070312 L 5.144531 13.070312 L 5.144531 9.214844 L 2.570312 9.214844 Z M 10.285156 22.5 L 10.285156 16.890625 C 10.285156 16.4375 10.652344 16.070312 11.105469 16.070312 L 12.894531 16.070312 C 13.347656 16.070312 13.714844 16.4375 13.714844 16.890625 L 13.714844 22.5 Z M 23.144531 22.5 L 14.570312 22.5 L 14.570312 16.890625 C 14.570312 15.964844 13.820312 15.214844 12.894531 15.214844 L 11.105469 15.214844 C 10.179688 15.214844 9.429688 15.964844 9.429688 16.890625 L 9.429688 22.5 L 0.855469 22.5 L 0.855469 10.070312 L 4.285156 10.070312 L 4.285156 13.929688 L 10.285156 13.929688 L 10.285156 10.070312 L 13.714844 10.070312 L 13.714844 13.929688 L 19.714844 13.929688 L 19.714844 10.070312 L 23.144531 10.070312 Z M 23.144531 22.5"/>
    <path d="M9.855469 4.5L6.429688 4.5 6.429688 7.929688 9.855469 7.929688zM9 7.070312L7.285156 7.070312 7.285156 5.355469 9 5.355469zM17.570312 4.5L14.144531 4.5 14.144531 7.929688 17.570312 7.929688zM16.714844 7.070312L15 7.070312 15 5.355469 16.714844 5.355469zM3 19.070312L6.429688 19.070312 6.429688 15.644531 3 15.644531zM3.855469 16.5L5.570312 16.5 5.570312 18.214844 3.855469 18.214844zM17.570312 19.070312L21 19.070312 21 15.644531 17.570312 15.644531zM18.429688 16.5L20.144531 16.5 20.144531 18.214844 18.429688 18.214844zM18.429688 16.5"/>
</svg>

<svg xmlns="http://www.w3.org/2000/svg" width="32" height="32" viewBox="0 0 24 24">
    <path d="M22.285 9.215V.645h-5.14v1.71H14.57V.645H9.43v1.71H6.855V.645h-5.14v8.57H0v14.14h24V9.215zM2.57 1.5H6v1.715h4.285V1.5h3.43v1.715H18V1.5h3.43v7.715h-2.575v3.855H14.57V9.215H9.43v3.855H5.145V9.215H2.57zm7.715 21v-5.61a.82.82 0 0 1 .82-.82h1.79a.82.82 0 0 1 .82.82v5.61zm12.86 0H14.57v-5.61c0-.925-.75-1.675-1.675-1.675h-1.79c-.925 0-1.675.75-1.675 1.676V22.5H.855V10.07h3.43v3.86h6v-3.86h3.43v3.86h6v-3.86h3.43zm0 0"/>
    <path d="M9.855 4.5H6.43v3.43h3.425zM9 7.07H7.285V5.355H9zm0 0M17.57 4.5h-3.425v3.43h3.425zm-.855 2.57H15V5.355h1.715zm0 0M3 19.07h3.43v-3.425H3zm.855-2.57H5.57v1.715H3.855zm0 0M17.57 19.07H21v-3.425h-3.43zm.86-2.57h1.715v1.715H18.43zm0 0"/>
</svg>
